X: 121783
T: Lovely Anne
T: \'Aine Mhaiseach
S: B.Breathnach:"Ceol Rince na hEireann" IV/170
Z: B.Black
L: 1/8
M: 4/4
R: reel
K: Ador
G|EAAB ABAB|cded cBAG|EGGB AGBG|ABAG E2 DG|
EAAB ABAB|cded cBAG|cBcd egdg|eaa^g a3 ||
e|ageg aged|cABG EG G2|ageg aged|cABG A2 de|
abag eged|cABG EG G2|ABAB cdeg|aged cA A2 ||
